color/svg/E20C.svg

<svg id="emoji" viewBox="0 0 72 72" xmlns="http://www.w3.org/2000/svg">
  <g id="color">
    <rect x="12" y="13" width="48" height="47" fill="#d0cfce"/>
    <path fill="#d0cfce" stroke="#9b9b9a" stroke-linejoin="round" stroke-width="2" d="m44,27h10l-2,5h-6l-2-5Z"/>
    <path fill="none" stroke="#9b9b9a" stroke-linejoin="round" stroke-width="2" d="m43.5,34.5l-3.5-3.5h-4v-4h8"/>
    <path fill="none" stroke="#9b9b9a" stroke-linejoin="round" stroke-width="2" d="m42,38h-6v-7"/>
    <path fill="none" stroke="#9b9b9a" stroke-linejoin="round" stroke-width="2" d="m54.5,34.5l3.5-3.5h1"/>
    <path fill="none" stroke="#9b9b9a" stroke-linejoin="round" stroke-width="2" d="m56,38h3"/>
    <path fill="none" stroke="#9b9b9a" stroke-linejoin="round" stroke-width="2" d="m56,45h3"/>
    <path fill="none" stroke="#9b9b9a" stroke-linejoin="round" stroke-width="2" d="m56,52h3"/>
    <path fill="none" stroke="#9b9b9a" stroke-linejoin="round" stroke-width="2" d="m36,45h5"/>
    <path fill="none" stroke="#9b9b9a" stroke-linejoin="round" stroke-width="2" d="m36,52h5"/>
    <path fill="#a57939" fill-rule="evenodd" d="m42,39c0-3.866,3.134-7,7-7s7,3.134,7,7v21h-14v-21Z"/>
    <rect x="17" y="40" width="16" height="14" fill="#3f3f3f"/>
    <rect x="50" y="40" width="4" height="18" fill="#6a462f"/>
    <rect x="44" y="40" width="4" height="18" fill="#6a462f"/>
    <path fill="#6a462f" fill-rule="evenodd" d="m44,39c0-2.7614,2.2386-5,5-5s5,2.2386,5,5h-10Z"/>
    <path fill="none" stroke="#9b9b9a" stroke-width="2" d="m54,27h5"/>
    <g>
      <path fill="none" stroke="#ea5a47" stroke-width="4" d="m17,37v-10"/>
      <path fill="none" stroke="#ea5a47" stroke-width="4" d="m25,37v-10"/>
      <path fill="none" stroke="#ea5a47" stroke-width="4" d="m33,37v-10"/>
      <path fill="none" stroke="#fff" stroke-width="4" d="m29,37v-10"/>
      <path fill="none" stroke="#fff" stroke-width="4" d="m21,37v-10"/>
      <path fill="none" stroke="#d22f27" stroke-width="4" d="m17,39v-2"/>
      <path fill="none" stroke="#d22f27" stroke-width="4" d="m25,39v-2"/>
      <path fill="none" stroke="#d22f27" stroke-width="4" d="m33,39v-2"/>
      <path fill="none" stroke="#d0cfce" stroke-width="4" d="m29,39v-2"/>
      <path fill="none" stroke="#d0cfce" stroke-width="4" d="m21,39v-2"/>
    </g>
  </g>
  <g id="line">
    <path fill="none" stroke="#000" stroke-linecap="round" stroke-width="2" d="m18,54h14"/>
    <path d="m15,27v-1c-.5523,0-1,.4477-1,1h1Zm20,0h1c0-.5523-.4477-1-1-1v1Zm-15,11c0-.5523-.4477-1-1-1s-1,.4477-1,1h2Zm4,0c0-.5523-.4477-1-1-1s-1,.4477-1,1h2Zm4,0c0-.5523-.4477-1-1-1s-1,.4477-1,1h2Zm4,0c0-.5523-.4477-1-1-1s-1,.4477-1,1h2Zm-17-10h20v-2H15v2Zm1,10v-11h-2v11h2Zm1,1c-.5523,0-1-.4477-1-1h-2c0,1.6569,1.3431,3,3,3v-2Zm1-1c0,.5523-.4477,1-1,1v2c1.6569,0,3-1.3431,3-3h-2Zm3,1c-.5523,0-1-.4477-1-1h-2c0,1.6569,1.3431,3,3,3v-2Zm1-1c0,.5523-.4477,1-1,1v2c1.6569,0,3-1.3431,3-3h-2Zm3,1c-.5523,0-1-.4477-1-1h-2c0,1.6569,1.3431,3,3,3v-2Zm1-1c0,.5523-.4477,1-1,1v2c1.6569,0,3-1.3431,3-3h-2Zm3,1c-.5523,0-1-.4477-1-1h-2c0,1.6569,1.3431,3,3,3v-2Zm1-1c0,.5523-.4477,1-1,1v2c1.6569,0,3-1.3431,3-3h-2Zm3,1c-.5523,0-1-.4477-1-1h-2c0,1.6569,1.3431,3,3,3v-2Zm1-1c0,.5523-.4477,1-1,1v2c1.6569,0,3-1.3431,3-3h-2Zm0-11v11h2v-11h-2Z"/>
    <line x1="35" x2="35" y1="59" y2="43" fill="none" stroke="#000" stroke-linecap="round" stroke-width="2"/>
    <line x1="15" x2="15" y1="59" y2="43" fill="none" stroke="#000" stroke-linecap="round" stroke-width="2"/>
    <path d="m49,33c-3.3137,0-6,2.6863-6,6h-2c0-4.4183,3.5817-8,8-8v2Zm6,6c0-3.3137-2.6863-6-6-6v-2c4.4183,0,8,3.5817,8,8h-2Zm0,20.0053v-20.0053h2v20.0053h-2Zm-12-20.0053v20.007h-2v-20.007h2Z"/>
    <rect x="12" y="13" width="48" height="47" fill="none" stroke="#000" stroke-linejoin="round" stroke-width="2"/>
    <g>
      <path fill="none" stroke="#000" stroke-linecap="round" stroke-linejoin="round" stroke-width="2" d="m50.03,16.0006h-4v7h4"/>
      <path fill="none" stroke="#000" stroke-linecap="round" stroke-linejoin="round" stroke-width="2" d="m46.03,19.5006h3"/>
    </g>
    <g>
      <path fill="none" stroke="#000" stroke-linecap="round" stroke-linejoin="round" stroke-width="2" d="m57.03,16.0006h-4v7h4"/>
      <path fill="none" stroke="#000" stroke-linecap="round" stroke-linejoin="round" stroke-width="2" d="m53.03,19.5006h3"/>
    </g>
    <g>
      <path fill="none" stroke="#000" stroke-linecap="round" stroke-linejoin="round" stroke-width="2" d="m29.03,23.0006l-3-7-3,7"/>
      <path fill="none" stroke="#000" stroke-linecap="round" stroke-linejoin="round" stroke-width="2" d="m24.03,21.3206h4"/>
    </g>
    <path fill="none" stroke="#000" stroke-linecap="round" stroke-linejoin="round" stroke-width="2" d="m35.03,19.5006h-3v3.5-7h4"/>
    <path fill="none" stroke="#000" stroke-linecap="round" stroke-linejoin="round" stroke-width="2" d="m42.2001,19.5006h-3v3.5-7h4"/>
    <g>
      <path fill="none" stroke="#000" stroke-linecap="round" stroke-linejoin="round" stroke-width="2" d="m16,16.0007v7"/>
      <path fill="none" stroke="#000" stroke-linecap="round" stroke-linejoin="round" stroke-width="2" d="m16.0193,20.5387l4.0002-4.5387"/>
      <path fill="none" stroke="#000" stroke-linecap="round" stroke-linejoin="round" stroke-width="2" d="m17.9862,18.357l2.3965,4.6466"/>
    </g>
  </g>
</svg>

<svg id="emoji" viewBox="0 0 72 72" xmlns="http://www.w3.org/2000/svg">
  <g id="color">
    <rect x="12" y="13" width="48" height="47" fill="#D0CFCE"/>
    <path fill="#d0cfce" stroke="#9B9B9A" stroke-linejoin="round" stroke-width="2" d="M44 27H54L52 32H46L44 27Z"/>
    <path fill="none" stroke="#9B9B9A" stroke-linejoin="round" stroke-width="2" d="M43.5 34.5L40 31H36V27H44"/>
    <path fill="none" stroke="#9B9B9A" stroke-linejoin="round" stroke-width="2" d="M42 38H36V31"/>
    <path fill="none" stroke="#9B9B9A" stroke-linejoin="round" stroke-width="2" d="M54.5 34.5L58 31H59"/>
    <path fill="none" stroke="#9B9B9A" stroke-linejoin="round" stroke-width="2" d="M56 38H59"/>
    <path fill="none" stroke="#9B9B9A" stroke-linejoin="round" stroke-width="2" d="M56 45H59"/>
    <path fill="none" stroke="#9B9B9A" stroke-linejoin="round" stroke-width="2" d="M56 52H59"/>
    <path fill="none" stroke="#9B9B9A" stroke-linejoin="round" stroke-width="2" d="M36 45H41"/>
    <path fill="none" stroke="#9B9B9A" stroke-linejoin="round" stroke-width="2" d="M36 52H41"/>
    <path fill="#A57939" fill-rule="evenodd" d="M42 39C42 35.134 45.134 32 49 32C52.866 32 56 35.134 56 39V60H42V39Z" clip-rule="evenodd"/>
    <rect x="17" y="40" width="16" height="14" fill="#3F3F3F"/>
    <rect width="4" height="18" transform="matrix(-1 0 0 1 54 40)" fill="#6A462F"/>
    <rect width="4" height="18" transform="matrix(-1 0 0 1 48 40)" fill="#6A462F"/>
    <path fill="#6A462F" fill-rule="evenodd" d="M44 39C44 36.2386 46.2386 34 49 34C51.7614 34 54 36.2386 54 39H44Z" clip-rule="evenodd"/>
    <path fill="none" stroke="#9B9B9A" stroke-width="2" d="M54 27H59"/>
    <g>
      <path fill="none" stroke="#EA5A47" stroke-width="4" d="M17 37L17 27"/>
      <path fill="none" stroke="#EA5A47" stroke-width="4" d="M25 37L25 27"/>
      <path fill="none" stroke="#EA5A47" stroke-width="4" d="M33 37L33 27"/>
      <path fill="none" stroke="#fff" stroke-width="4" d="M29 37L29 27"/>
      <path fill="none" stroke="#fff" stroke-width="4" d="M21 37L21 27"/>
      <path fill="none" stroke="#D22F27" stroke-width="4" d="M17 39L17 37"/>
      <path fill="none" stroke="#D22F27" stroke-width="4" d="M25 39L25 37"/>
      <path fill="none" stroke="#D22F27" stroke-width="4" d="M33 39L33 37"/>
      <path fill="none" stroke="#D0CFCE" stroke-width="4" d="M29 39L29 37"/>
      <path fill="none" stroke="#D0CFCE" stroke-width="4" d="M21 39L21 37"/>
    </g>
  </g>
  <g id="line">
    <path fill="none" stroke="#000" stroke-linecap="round" stroke-width="2" d="M18 54H32"/>
    <path fill="#000" d="M15 27V26C14.4477 26 14 26.4477 14 27H15ZM35 27H36C36 26.4477 35.5523 26 35 26V27ZM20 38C20 37.4477 19.5523 37 19 37C18.4477 37 18 37.4477 18 38H20ZM24 38C24 37.4477 23.5523 37 23 37C22.4477 37 22 37.4477 22 38H24ZM28 38C28 37.4477 27.5523 37 27 37C26.4477 37 26 37.4477 26 38H28ZM32 38C32 37.4477 31.5523 37 31 37C30.4477 37 30 37.4477 30 38H32ZM15 28H35V26H15V28ZM16 38V27H14V38H16ZM17 39C16.4477 39 16 38.5523 16 38H14C14 39.6569 15.3431 41 17 41V39ZM18 38C18 38.5523 17.5523 39 17 39V41C18.6569 41 20 39.6569 20 38H18ZM21 39C20.4477 39 20 38.5523 20 38H18C18 39.6569 19.3431 41 21 41V39ZM22 38C22 38.5523 21.5523 39 21 39V41C22.6569 41 24 39.6569 24 38H22ZM25 39C24.4477 39 24 38.5523 24 38H22C22 39.6569 23.3431 41 25 41V39ZM26 38C26 38.5523 25.5523 39 25 39V41C26.6569 41 28 39.6569 28 38H26ZM29 39C28.4477 39 28 38.5523 28 38H26C26 39.6569 27.3431 41 29 41V39ZM30 38C30 38.5523 29.5523 39 29 39V41C30.6569 41 32 39.6569 32 38H30ZM33 39C32.4477 39 32 38.5523 32 38H30C30 39.6569 31.3431 41 33 41V39ZM34 38C34 38.5523 33.5523 39 33 39V41C34.6569 41 36 39.6569 36 38H34ZM34 27V38H36V27H34Z"/>
    <line x1="35" x2="35" y1="59" y2="43" stroke="#000" stroke-linecap="round" stroke-width="2"/>
    <line x1="15" x2="15" y1="59" y2="43" stroke="#000" stroke-linecap="round" stroke-width="2"/>
    <path fill="#000" d="M56 60H57C57 60.5523 56.5523 61 56 61V60ZM42 60V61C41.4477 61 41 60.5523 41 60H42ZM49 33C45.6863 33 43 35.6863 43 39H41C41 34.5817 44.5817 31 49 31V33ZM55 39C55 35.6863 52.3137 33 49 33V31C53.4183 31 57 34.5817 57 39H55ZM55 60V39H57V60H55ZM42 59H56V61H42V59ZM43 39V60H41V39H43Z"/>
    <rect x="12" y="13" width="48" height="47" fill="none" stroke="#000" stroke-linejoin="round" stroke-width="2"/>
    <g>
      <g>
        <path fill="none" stroke="#000" stroke-linecap="round" stroke-linejoin="round" stroke-miterlimit="10" stroke-width="2" d="M50.03 16.0006H46.03V23.0006H50.03"/>
      </g>
      <g>
        <path fill="none" stroke="#000" stroke-linecap="round" stroke-linejoin="round" stroke-miterlimit="10" stroke-width="2" d="M46.03 19.5006H49.03"/>
      </g>
    </g>
    <g>
      <g>
        <path fill="none" stroke="#000" stroke-linecap="round" stroke-linejoin="round" stroke-miterlimit="10" stroke-width="2" d="M57.03 16.0006H53.03V23.0006H57.03"/>
      </g>
      <g>
        <path fill="none" stroke="#000" stroke-linecap="round" stroke-linejoin="round" stroke-miterlimit="10" stroke-width="2" d="M53.03 19.5006H56.03"/>
      </g>
    </g>
    <g>
      <g>
        <path fill="none" stroke="#000" stroke-linecap="round" stroke-linejoin="round" stroke-miterlimit="10" stroke-width="2" d="M29.03 23.0006L26.03 16.0006L23.03 23.0006"/>
      </g>
      <g>
        <path fill="none" stroke="#000" stroke-linecap="round" stroke-linejoin="round" stroke-miterlimit="10" stroke-width="2" d="M24.03 21.3206H28.03"/>
      </g>
    </g>
    <g>
      <path fill="none" stroke="#000" stroke-linecap="round" stroke-linejoin="round" stroke-miterlimit="10" stroke-width="2" d="M35.03 19.5006H32.03V23.0006V16.0006H36.03"/>
    </g>
    <g>
      <path fill="none" stroke="#000" stroke-linecap="round" stroke-linejoin="round" stroke-miterlimit="10" stroke-width="2" d="M42.2001 19.5006H39.2001V23.0006V16.0006H43.2001"/>
    </g>
    <g>
      <g>
        <path fill="none" stroke="#000" stroke-linecap="round" stroke-linejoin="round" stroke-miterlimit="10" stroke-width="2" d="M16 16.0007V23.0007"/>
      </g>
      <g>
        <path fill="none" stroke="#000" stroke-linecap="round" stroke-linejoin="round" stroke-miterlimit="10" stroke-width="2" d="M16.0193 20.5387L20.0195 16"/>
      </g>
      <g>
        <path fill="none" stroke="#000" stroke-linecap="round" stroke-linejoin="round" stroke-miterlimit="10" stroke-width="2" d="M17.9862 18.357L20.3827 23.0036"/>
      </g>
    </g>
  </g>
</svg>
